X: 1077
T: Horozumun Tüyleri
C: Veli Kanık
O: Turkey
F: http://compmusic.upf.edu/node/140
N: hicaz--turku--aksak--horozumun_tuyleri--istanbul
N: makam= hicaz
N: form= turku
N: usul= aksak = 9/8
M: 9/8
L: 1/16
K: C _7/8B ^f ^c 
Q: 1/4=228
%%MIDI tuningsystem comma53
c2d2 c2B2 A2B2 c4 e2 | d4c2 B2A4e2 e4  | \
w:  ARANAĞME  |   | 
c2d2 c2B2 A2B2 c4 e2 | 
w:   | 
d4c2 B2A8-A2  | c2d2 c2B2 A2B2 c4 e2 | \
w:   |  ARANAĞME  | 
d4c2 B2A4e2 e4  | c2d2 c2B2 A2B2 c4 e2 | 
w:   |   | 
d4c2 B2A8-A2  | c2d2 e2e2 =f2e2 f2^g4 | \
w:   |  Ho ro zu mun  tüy *  le ri   | 
=f2 e2d2 f2e4f2 ^g4  | c2d2 e2e2 =f2e2 f2^g4 | 
w:  il *  vâ *  ne  a man    |  Ho ro zu mun  tüy *  le ri   | 
=f2 e2d2 f2e8-e2  | c2d2 c2B2 A2B2 c4 e2 | \
w:  il *  vâ *  ne    |  Ha pı  yut tu  ta vuk la rım   | 
d4c2 B2A4e2 e4  | c2d2 c2B2 A2B2 c4 e2 | 
w:  dî vâ *  ne  a man    |  Ha pı  yut tu  ta vuk la rım   | 
d4c2 B2A8-A2  | c2d2 e2e2 e2e2 a6 | c2 d2e2 e2e2 e2a6  | \
w:  dî vâ *  ne    |  Ha  gıt  gıt  gıt  gıt  gı dak    |  Ha  gıt  gıt  gıt  gıt  gı dak    | 
c2d2 c2B2 A2B2 c4 e2 | 
w:  Kör_ o la sı  ta vuk la rım   | 
d4c2 B2A4e2 e4  | c2d2 c2B2 A2B2 c4 e2 | \
w:  pek  fı kır dak  a man    |  Kör_ o la sı  ta vuk la rım   | 
d4c2 B2A8-A2  | c2d2 c2B2 A2B2 c4 e2 | 
w:  pek  fı kır dak    |  ARANAĞME  | 
d4c2 B2A4e2 e4  | c2d2 c2B2 A2B2 c4 e2 | \
w:   |   | 
d4c2 B2A8-A2  | c2d2 c2B2 A2B2 c4 e2 | 
w:   |  ARANAĞME  | 
d4c2 B2A4e2 e4  | c2d2 c2B2 A2B2 c4 e2 | \
w:   |   | 
d4c2 B2A8-A2  | c2d2 e2e2 =f2e2 f2^g4 | 
w:   |  Ho ro zu mun  tüy *  le ri   | 
=f2 e2d2 f2e4f2 ^g4  | c2d2 e2e2 =f2e2 f2^g4 | \
w:  il *  vâ *  ne  a man    |  Ho ro zu mun  tüy *  le ri   | 
=f2 e2d2 f2e8-e2  | 
w:  il *  vâ *  ne    | 
c2d2 c2B2 A2B2 c4 e2 | d4c2 B2A4e2 e4  | \
w:  Ha pı  yut tu  ta vuk la rım   |  dî vâ *  ne  a man    | 
c2d2 c2B2 A2B2 c4 e2 | 
w:  Ha pı  yut tu  ta vuk la rım   | 
d4c2 B2A8-A2  | c2d2 e2e2 e2e2 a6 | c2 d2e2 e2e2 e2a6  | \
w:  dî vâ *  ne    |  Ha  gıt  gıt  gıt  gıt  gı dak    |  Ha  gıt  gıt  gıt  gıt  gı dak    | 
c2d2 c2B2 A2B2 c4 e2 | 
w:  Kör_ o la sı  ta vuk la rım   | 
d4c2 B2A4e2 e4  | c2d2 c2B2 A2B2 c4 e2 | \
w:  pek  fı kır dak  a man    |  Kör_ o la sı  ta vuk la rım   | 
d4c2 B2A8-A2  | |


